X:130
T:O-Pee-Chee
C:by Mike Bunting
N:TablEdited by Michael Bunting
L:1/8
Q:1/4=144
M:4/4
K:G
G,A, B,D =F^G Bd | BB ^A=A z4 |: "G6"BB d2 bb2b | ga ge dc AB | "C6"cd eg2e a2 | 
"Am7"ga ge "A7"ag e2 | "D9"ef ed cB A2 | AB AG FE D2 |1 "G6"G,A, B,D "G#o"=F^G Bd | 
"Am7"BB ^A=A "D9"z4 :|2 "D7b9"B,D GB "Eb9"c^d fa | "G6"g2 f2 g2 ^g2 |] 
g8 | "D6"a=f ^fe dB c^c | ed zB ^A=A FA | FA ze d^c de | =f2 ^f2 g2 ^g2 | "A7"a3b ag fe | 
FA c^c BA F=F | FB zc ^ce =f^f | "D6"[f2d2] [f2^c2] "D9"[f4=c4] | 

